SVG/ico__search.svg

<svg xmlns="http://www.w3.org/2000/svg" viewBox="0 0 240 240">
  <path d="M183.18,169.04c10.53-13.55,16.82-30.55,16.82-49.04,0-44.18-35.82-80-80-80S40,75.82,40,120s35.82,80,80,80c18.49,0,35.49-6.29,49.04-16.82l36.82,36.82,14.14-14.14-36.82-36.82ZM120,180c-33.14,0-60-26.86-60-60s26.86-60,60-60,60,26.86,60,60-26.86,60-60,60Z"/>
</svg>

<svg width="240" height="240" viewBox="0 0 240 240" fill="none" xmlns="http://www.w3.org/2000/svg">
<path d="M183.18 169.04C193.71 155.49 200 138.49 200 120C200 75.82 164.18 40 120 40C75.82 40 40 75.82 40 120C40 164.18 75.82 200 120 200C138.49 200 155.49 193.71 169.04 183.18L205.86 220L220 205.86L183.18 169.04ZM120 180C86.86 180 60 153.14 60 120C60 86.86 86.86 60 120 60C153.14 60 180 86.86 180 120C180 153.14 153.14 180 120 180Z" fill="black"/>
</svg>
